assets/sonr-icons/map.svg

<svg xmlns="http://www.w3.org/2000/svg" width="24" height="24" fill="none" viewBox="0 0 24 24"><path fill="#000" fill-rule="evenodd" d="M22.5599 2.4C22.5599 2.04596 22.3651 1.72065 22.0529 1.5536C21.7408 1.38654 21.362 1.40485 21.0674 1.60124L15.8011 5.11212L9.59623 1.56649C9.3011 1.39784 8.93878 1.39784 8.64365 1.56649L1.92365 5.40649C1.62454 5.57741 1.43994 5.8955 1.43994 6.24V21.6C1.43994 21.9422 1.62211 22.2586 1.91809 22.4303C2.21407 22.6021 2.57911 22.6033 2.87623 22.4335L9.11994 18.8657L15.3636 22.4335C15.6794 22.6139 16.0699 22.6005 16.3725 22.3988L22.1325 18.5588C22.3995 18.3807 22.5599 18.081 22.5599 17.76V2.4ZM10.0799 4.05426L14.8799 6.79711V19.9458L10.0799 17.2029V4.05426ZM20.6399 17.2462L16.7999 19.8062V6.75378L20.6399 4.19378V17.2462ZM3.35994 6.79711L8.15994 4.05426V17.2029L3.35994 19.9458V6.79711Z" clip-rule="evenodd"/></svg>

<svg xmlns="http://www.w3.org/2000/svg" width="24" height="24" fill="none"><path fill="currentColor" fill-rule="evenodd" d="M22.56 2.4a.96.96 0 0 0-1.493-.799l-5.266 3.511-6.205-3.546a.96.96 0 0 0-.952 0l-6.72 3.84a.96.96 0 0 0-.484.834V21.6a.96.96 0 0 0 1.436.833l6.244-3.567 6.244 3.567a.96.96 0 0 0 1.008-.034l5.76-3.84a.96.96 0 0 0 .428-.799zM10.08 4.054l4.8 2.743v13.149l-4.8-2.743zm10.56 13.192-3.84 2.56V6.754l3.84-2.56zM3.36 6.797l4.8-2.743v13.149l-4.8 2.743z" clip-rule="evenodd"/></svg>
